X: 519
T: Devil's Dream, The
B: jims roots
B: ralph
M:4/4
L:1/8
R: hornpipe
Q: 1/4=100
K:Amaj
V:1 
e |:"A"agae agae |agae fedc |"Bm"dfBf dfBf |dfBf ag"E"fe|
"A"agae agae |agae fedc |"D"Bcde "E"gfed | "A"ce"E"Be "A"A2 ze:|
|:"A"ceAe ceAe |ceAe fedc |"Bm"dfBf dfBf |dfBf ag"E"fe |
"A"ceAe ceAe |ceAe fedc |"D"Bcde "E"gfed | "A"ce"E"Be "A"A2 ze:|
% abcbook-tune_id 6298c245836b42d3d59b64e2


% abcbook-boost 0
% abcbook-tablature 
% abcbook-transpose 
% abcbook-lastupdated 1665486380253
% abcbook-soundfonts 
% abcbook-repeats 1
% JeffK627
% <a href="http://thesession.org/tunes/259#setting259" rel="nofollow">http://thesession.org/tunes/259#setting259</a>

